assets/img/blocks/form/checkbox.svg

<?xml version="1.0" encoding="UTF-8"?>
<svg width="16px" height="16px" viewBox="0 0 16 16" version="1.1" xmlns="http://www.w3.org/2000/svg" xmlns:xlink="http://www.w3.org/1999/xlink">
    <!-- Generator: Sketch 58 (84663) - https://sketch.com -->
    <title>Checkbox</title>
    <desc>Created with Sketch.</desc>
    <g id="Page-1" stroke="none" stroke-width="1" fill="none" fill-rule="evenodd">
        <path d="M12.5357292,0 C14.1328293,0 15.4285898,1.29576047 15.4285898,2.89286059 L15.4285898,12.5357292 C15.4285898,14.1328293 14.1328293,15.4285898 12.5357292,15.4285898 L2.89286059,15.4285898 C1.29576047,15.4285898 0,14.1328293 0,12.5357292 L0,2.89286059 C0,1.29576047 1.29576047,0 2.89286059,0 L12.5357292,0 Z M12.0234518,3.66629901 C11.7723355,3.41518264 11.3705493,3.41518264 11.1194329,3.66629901 L11.1194329,3.66629901 L6.42857909,8.35715282 L4.30915692,6.23773065 C4.05804055,5.98661428 3.65625436,5.98661428 3.40513799,6.23773065 L3.40513799,6.23773065 L2.3805832,7.26228544 C2.12946682,7.51340181 2.12946682,7.91518801 2.3805832,8.16630438 L2.3805832,8.16630438 L5.97656962,11.7622908 C6.227686,12.0134072 6.62947219,12.0134072 6.88058856,11.7622908 L6.88058856,11.7622908 L13.0480066,5.59487274 C13.299123,5.34375637 13.299123,4.94197018 13.0480066,4.69085381 L13.0480066,4.69085381 Z" id="Checkbox" fill="#535F6A" fill-rule="nonzero"></path>
    </g>
</svg>

<svg xmlns="http://www.w3.org/2000/svg" width="16" height="16"><path fill="#535F6A" fill-rule="nonzero" d="M12.536 0a2.894 2.894 0 0 1 2.893 2.893v9.643a2.894 2.894 0 0 1-2.893 2.893H2.893A2.894 2.894 0 0 1 0 12.536V2.893A2.894 2.894 0 0 1 2.893 0h9.643Zm-.513 3.666a.637.637 0 0 0-.904 0L6.43 8.357l-2.12-2.12a.637.637 0 0 0-.904 0L2.381 7.263a.637.637 0 0 0 0 .904l3.596 3.596a.637.637 0 0 0 .904 0l6.167-6.167a.637.637 0 0 0 0-.904Z"/></svg>
